X:27
T:Boire \`a la Capucine. [FJ27]
S:Festin joyeux.  Music page 14.
Z:transcribed by Eric Conrad, 2021.
N:NB The meter is given simply as "3"
N:NB In the MS, the G is the second line as is usual today (lines: EGBdf)
N:NB MS has a four-dot repeat in the middle, with no marks at start or end.
N:NB Repeat marks were added at beginning and end.
N:NB The plus signs seem to indicate some kind of roll or trill.
M:3/4
L:1/4
K:Am % no sharps or flats in signature, ending on A (some raised thirds and all raised sevenths)
|: E | A2B | c2A | eeE | A2B | c3/2 B/A/B/ | "^+"B2 ::
e | c2d | e2f | "^+"dce | A2B | "^+"^G2A |
BEe | f2d | e^c2 | d2B | "^+"^G2A | B"^+"B2 | A2 :|

